usr/share/icons/biglinux-icons-material/scalable/apps/vivaldi.svg

<?xml version="1.0" encoding="UTF-8" standalone="no"?>
<svg
   width="24"
   height="24"
   version="1.1"
   viewBox="0 0 6.349875 6.349875"
   id="svg7991"
   sodipodi:docname="vivaldi.svg"
   xml:space="preserve"
   inkscape:version="1.2.2 (b0a8486541, 2022-12-01)"
   xmlns:inkscape="http://www.inkscape.org/namespaces/inkscape"
   xmlns:sodipodi="http://sodipodi.sourceforge.net/DTD/sodipodi-0.dtd"
   xmlns="http://www.w3.org/2000/svg"
   xmlns:svg="http://www.w3.org/2000/svg"><defs
     id="defs7995"><radialGradient
       id="paint0_radial_1_41"
       cx="0"
       cy="0"
       r="1"
       gradientUnits="userSpaceOnUse"
       gradientTransform="matrix(0,2.9103593,-2.9103593,0,3.1749342,0.26458211)"><stop
         stop-color="#F08C85"
         id="stop283"
         offset="0"
         style="stop-color:#ffcac6;stop-opacity:1;" /><stop
         offset="1"
         stop-color="#E84F43"
         id="stop285"
         style="stop-color:#e14444;stop-opacity:1;" /></radialGradient></defs><sodipodi:namedview
     id="namedview7993"
     pagecolor="#ffffff"
     bordercolor="#000000"
     borderopacity="0.25"
     inkscape:showpageshadow="2"
     inkscape:pageopacity="0.0"
     inkscape:pagecheckerboard="0"
     inkscape:deskcolor="#d1d1d1"
     showgrid="false"
     inkscape:zoom="19.312854"
     inkscape:cx="2.0711595"
     inkscape:cy="10.22635"
     inkscape:window-width="2560"
     inkscape:window-height="1000"
     inkscape:window-x="1680"
     inkscape:window-y="0"
     inkscape:window-maximized="1"
     inkscape:current-layer="svg7991" /><path
     fill-rule="evenodd"
     clip-rule="evenodd"
     d="m 2.538899,0.29463554 c 0.031707,3.3602e-4 0.062015,-0.003701 0.090922,-0.0121177 0.3798839,-0.0248846 0.7597122,-0.0238753 1.1395406,0.003029 0.3444016,0.026834 0.6777965,0.10155611 1.0001585,0.2241669 C 5.3054495,0.73035602 5.6721813,1.1130577 5.8696624,1.6578135 5.9826108,1.9857924 6.0492845,2.3230554 6.0697099,2.6695972 6.0979404,3.1047489 6.0878335,3.538948 6.0393892,3.9721947 6.003142,4.2766976 5.9243242,4.5695327 5.8029887,4.8506734 5.5779385,5.3381586 5.2132441,5.6744109 4.7089053,5.8594304 4.3002114,5.9975137 3.8799555,6.0702198 3.4481111,6.0775222 2.9623722,6.1027894 2.4815094,6.0664363 2.005491,5.9684895 1.1293194,5.7733102 0.58883921,5.239127 0.3840531,4.3659928 0.29714712,3.9729355 0.25774853,3.5750894 0.26585282,3.1724544 0.25615498,2.7443141 0.30161585,2.32223 0.40223755,1.9062126 0.61691624,1.0898224 1.1351692,0.58393055 1.9569991,0.38854225 2.1484981,0.34172516 2.3424656,0.31042292 2.538899,0.29463554 Z"
     fill="url(#paint0_radial_1_41)"
     id="path279"
     style="fill:url(#paint0_radial_1_41);stroke-width:0.264578" /><path
     d="M 1.26439,2.0293998 2.8607333,4.86532 c 0,0 0.086781,0.152134 0.3042694,0.152134 0.2169527,0 0.3031981,-0.152134 0.3031981,-0.152134 0,0 1.1088694,-1.7088376 1.5620594,-2.6200389 0.045533,-0.091602 0.094816,-0.1848116 0.1157081,-0.2844491 A 0.48211711,0.48425985 0 0 0 5.1497181,1.7519146 0.44515479,0.44783322 0 0 0 5.0302602,1.5269266 0.47461751,0.47729593 0 0 0 4.7624174,1.4096114 0.55550604,0.55872016 0 0 0 4.4538624,1.4722867 0.403907,0.40604974 0 0 0 4.2942281,1.6276355 0.49015239,0.49283082 0 0 0 4.2438737,1.8435168 0.58496875,0.58818287 0 0 0 4.2770862,2.0454703 c 0.014999,0.041248 0.034284,0.081424 0.049819,0.1221364 0.012321,0.03482 0.029998,0.067496 0.033748,0.1044587 A 0.36962311,0.37123017 0 0 1 4.3445826,2.4466989 C 4.2406595,2.712399 4.0612048,2.9668497 3.8238961,3.1227342 3.7258656,3.1870165 3.6005152,3.2036228 3.4837357,3.2084439 3.3498143,3.2148721 3.1955368,3.2041584 3.0873283,3.1441616 2.9791198,3.0852362 2.9282297,2.9818489 2.8601976,2.891318 2.5489642,2.4756259 2.0395271,1.5644246 2.0395271,1.5644246 c 0,0 -0.2217738,-0.393729 -0.620324,-0.1553489 C 1.0211886,1.6479916 1.2638543,2.0299354 1.2638543,2.0299354 Z"
     fill="#ffffff"
     fill-rule="evenodd"
     id="path9828"
     style="stroke-width:0.535686" /></svg>

<svg xmlns="http://www.w3.org/2000/svg" xml:space="preserve" width="24" height="24" viewBox="0 0 6.35 6.35"><defs><radialGradient id="a" cx="0" cy="0" r="1" gradientTransform="rotate(90 1.455 1.72) scale(2.91036)" gradientUnits="userSpaceOnUse"><stop offset="0" stop-color="#F08C85" style="stop-color:#ffcac6;stop-opacity:1"/><stop offset="1" stop-color="#E84F43" style="stop-color:#e14444;stop-opacity:1"/></radialGradient></defs><path fill="url(#a)" fill-rule="evenodd" d="M2.539.295a.312.312 0 0 0 .09-.012c.38-.025.76-.024 1.14.003.345.026.678.101 1 .224.536.22.903.603 1.1 1.148.114.328.18.665.2 1.012.029.435.019.869-.03 1.302a3.143 3.143 0 0 1-.236.879 1.87 1.87 0 0 1-1.094 1.008c-.409.139-.829.211-1.26.219a5.668 5.668 0 0 1-1.444-.11C1.13 5.773.59 5.24.385 4.366a5.04 5.04 0 0 1-.12-1.194c-.009-.428.037-.85.137-1.266C.617 1.09 1.135.584 1.957.39c.191-.047.385-.079.582-.094Z" clip-rule="evenodd" style="fill:url(#a);stroke-width:.264578"/><path fill="#fff" fill-rule="evenodd" d="m1.264 2.03 1.597 2.835s.087.152.304.152.303-.152.303-.152 1.11-1.709 1.562-2.62c.046-.091.095-.185.116-.284a.482.484 0 0 0 .004-.21.445.448 0 0 0-.12-.224.475.477 0 0 0-.268-.117.556.559 0 0 0-.308.062.404.406 0 0 0-.16.156.49.493 0 0 0-.05.216.585.588 0 0 0 .033.201c.015.042.034.082.05.123.012.034.03.067.034.104a.37.371 0 0 1-.016.175c-.104.265-.284.52-.521.676a.67.67 0 0 1-.34.085c-.134.007-.288-.004-.397-.064-.108-.059-.159-.162-.227-.253-.311-.415-.82-1.327-.82-1.327s-.222-.393-.62-.155c-.399.239-.156.62-.156.62Z" style="stroke-width:.535686"/></svg>
